X:95
T:The four-hand reel
T:The five mile chase
R:Reel
O:Ireland
B:O'Neill's 1554
S:O'Neill's 1554
Z:Transcription:John B. Walsh, arr., chords:Mike Long
M:C|
L:1/8
K:G
(3(DEF)[|\
"G"G2BG cGBG|"D"FADA FADA|"G"G2BG dGBd|"C"egfa "D"gedB|\
"G"G2BG dGBG|"D"FADA FADA|
"G"G2BG dGBd|"C"eg"D"fa "G"g2g2|]\
"G"gdBd "D"edBd|"G"gabg "D"fdef|"G"gdBd "C"edBd|
"C"eg"D"fa "G"g2g2|\
"G"gabg "C"efge|"G"dedB "D"ADFA|"G"GABd "C"cdeg|"D"fgaf "(G)"gedB|]
